;FLAVOR:Marlin
;TIME:1598
;Filament used: 1.19749m
;Layer height: 0.28
;MINX:93.75
;MINY:84.5
;MINZ:0.28
;MAXX:141.25
;MAXY:135.5
;MAXZ:9.8
;Generated with Cura_SteamEngine 4.8.0
M140 S50
M105
M190 S50
M104 S200
M105
M109 S200
M82 ;absolute extrusion mode
; Script based on an original created by tjjfvi (https://github.com/tjjfvi)
; An up-to-date version of the tjjfvi's original script can be found
; here:  https://csi.t6.fyi/
; Note - This script will only work in Cura V4.2 and above!
; --- Global Settings
; layer_height = 0.28
; smooth_spiralized_contours = True
; magic_mesh_surface_mode = normal
; machine_extruder_count = 1
; --- Single Extruder Settings
; speed_z_hop = 5
; retraction_amount = 5
; retraction_hop = 0.2
; retraction_hop_enabled = False
; retraction_enable = True
; retraction_speed = 45
; retraction_retract_speed = 45
; retraction_prime_speed = 45
; speed_travel = 150.0

; Ender 3 Custom Start G-code
G92 E0 ; Reset Extruder
G28 ; Home all axes
G1 Z2.0 F3000 ; Move Z Axis up little to prevent scratching of Heat Bed
G1 X0.1 Y20 Z0.3 F5000.0 ; Move to start position
G1 X0.1 Y200.0 Z0.3 F1500.0 E15 ; Draw the first line
G1 X0.4 Y200.0 Z0.3 F5000.0 ; Move to side a little
G1 X0.4 Y20 Z0.3 F1500.0 E30 ; Draw the second line
G92 E0 ; Reset Extruder
G1 Z2.0 F3000 ; Move Z Axis up little to prevent scratching of Heat Bed
G1 X5 Y20 Z0.3 F5000.0 ; Move over to prevent blob squish
G92 E0
G92 E0
G1 F2700 E-5
;LAYER_COUNT:35
;LAYER:0
M107
G0 F6000 X96.836 Y91.872 Z0.28
;TYPE:SKIRT
G1 F2700 E0
G1 F1200 X97.038 Y91.66 E0.01364
G1 X97.303 Y91.391 E0.03122
G1 X100.605 Y88.09 E0.24863
G1 X101.089 Y87.62 E0.28004
G1 X101.789 Y86.995 E0.32374
G1 X102.54 Y86.433 E0.36742
G1 X103.335 Y85.937 E0.41105
G1 X104.171 Y85.51 E0.45476
G1 X105.039 Y85.157 E0.49839
G1 X105.935 Y84.878 E0.54209
G1 X106.851 Y84.677 E0.58576
G1 X107.781 Y84.554 E0.62944
G1 X108.979 Y84.513 E0.68526
G1 X110.169 Y84.538 E0.74068
G1 X112.793 Y84.555 E0.86287
G1 X114.819 Y84.518 E0.95722
G1 X115.26 Y84.505 E0.97776
G1 X115.585 Y84.5 E0.9929
G1 X118.793 Y84.5 E1.14228
G1 X120.617 Y84.525 E1.22722
G1 X121.6 Y84.551 E1.27301
G1 X124.169 Y84.549 E1.39263
G1 X125.439 Y84.521 E1.45178
G1 X125.981 Y84.505 E1.47703
G1 X126.303 Y84.5 E1.49203
G1 X129.701 Y84.501 E1.65025
G1 X130.399 Y84.511 E1.68276
G1 X131.335 Y84.565 E1.72641
G1 X132.263 Y84.697 E1.77006
G1 X133.177 Y84.909 E1.81375
G1 X134.069 Y85.198 E1.85741
G1 X134.934 Y85.561 E1.90109
G1 X135.764 Y85.997 E1.94475
G1 X136.555 Y86.502 E1.98845
G1 X137.299 Y87.073 E2.03212
G1 X137.992 Y87.705 E2.07579
G1 X138.629 Y88.393 E2.11945
G1 X139.204 Y89.134 E2.16312
G1 X139.715 Y89.92 E2.20678
G1 X140.157 Y90.748 E2.25048
G1 X140.526 Y91.61 E2.29414
G1 X140.821 Y92.5 E2.3378
G1 X141.039 Y93.412 E2.38146
G1 X141.179 Y94.34 E2.42516
G1 X141.237 Y95.201 E2.46535
G1 X141.246 Y95.521 E2.48025
G1 X141.25 Y95.83 E2.49464
G1 X141.249 Y104.94 E2.91884
G1 X141.223 Y106.749 E3.00309
G1 X141.223 Y109.381 E3.12564
G1 X141.248 Y110.585 E3.18172
G1 X141.25 Y110.813 E3.19234
G1 X141.249 Y119.95 E3.61779
G1 X141.239 Y120.652 E3.65048
G1 X141.186 Y121.588 E3.69414
G1 X141.053 Y122.516 E3.73779
G1 X140.841 Y123.43 E3.78148
G1 X140.553 Y124.323 E3.82517
G1 X140.189 Y125.187 E3.86883
G1 X139.753 Y126.018 E3.91252
G1 X139.248 Y126.808 E3.95618
G1 X138.678 Y127.552 E3.99983
G1 X138.305 Y127.976 E4.02612
G1 X138.164 Y128.128 E4.03578
G1 X137.962 Y128.34 E4.04941
G1 X137.781 Y128.525 E4.06146
G1 X134.396 Y131.908 E4.28431
G1 X133.902 Y132.387 E4.31635
G1 X133.202 Y133.011 E4.36001
G1 X132.451 Y133.572 E4.40366
G1 X131.654 Y134.068 E4.44737
G1 X130.819 Y134.494 E4.49102
G1 X129.95 Y134.847 E4.5347
G1 X129.054 Y135.125 E4.57838
G1 X128.138 Y135.326 E4.62205
G1 X127.208 Y135.448 E4.66572
G1 X126.616 Y135.484 E4.69334
G1 X126.231 Y135.494 E4.71127
G1 X125.688 Y135.5 E4.73656
G1 X109.3 Y135.499 E5.49965
G1 X108.598 Y135.489 E5.53234
G1 X107.662 Y135.436 E5.576
G1 X106.734 Y135.303 E5.61965
G1 X105.82 Y135.091 E5.66334
G1 X104.927 Y134.803 E5.70703
G1 X104.063 Y134.439 E5.75069
G1 X103.232 Y134.003 E5.79439
G1 X102.442 Y133.498 E5.83804
G1 X101.698 Y132.928 E5.88169
G1 X101.274 Y132.555 E5.90798
G1 X101.122 Y132.414 E5.91764
G1 X100.906 Y132.207 E5.93157
G1 X100.631 Y131.937 E5.94951
G1 X97.324 Y128.629 E6.16732
G1 X96.853 Y128.142 E6.19886
G1 X96.23 Y127.441 E6.24253
G1 X95.67 Y126.689 E6.28619
G1 X95.175 Y125.892 E6.32988
G1 X94.75 Y125.056 E6.37355
G1 X94.398 Y124.187 E6.41721
G1 X94.121 Y123.291 E6.46088
G1 X93.922 Y122.374 E6.50457
G1 X93.801 Y121.444 E6.54824
G1 X93.766 Y120.866 E6.5752
G1 X93.756 Y120.481 E6.59314
G1 X93.75 Y119.938 E6.61842
G1 X93.751 Y115.051 E6.84598
G1 X93.761 Y114.344 E6.87891
G1 X93.849 Y111.296 E7.02089
G1 X93.849 Y108.792 E7.13749
G1 X93.798 Y106.749 E7.23265
G1 X93.761 Y105.737 E7.2798
G1 X93.755 Y105.449 E7.29322
G1 X93.75 Y104.938 E7.31701
G1 X93.751 Y100.05 E7.54462
G1 X93.761 Y99.348 E7.57731
G1 X93.814 Y98.412 E7.62096
G1 X93.947 Y97.484 E7.66462
G1 X94.159 Y96.57 E7.70831
G1 X94.447 Y95.677 E7.752
G1 X94.811 Y94.813 E7.79565
G1 X95.247 Y93.982 E7.83935
G1 X95.752 Y93.192 E7.88301
G1 X96.322 Y92.448 E7.92665
G1 X96.695 Y92.024 E7.95295
G1 X96.836 Y91.872 E7.9626
G0 F6000 X97.13 Y92.144
G1 F1200 X97.324 Y91.94 E7.97571
G1 X97.585 Y91.674 E7.99306
G1 X100.883 Y88.376 E8.21024
G1 X101.367 Y87.906 E8.24166
G1 X102.055 Y87.294 E8.28453
G1 X102.793 Y86.744 E8.32739
G1 X103.577 Y86.26 E8.37029
G1 X104.399 Y85.846 E8.41315
G1 X105.254 Y85.505 E8.45601
G1 X106.135 Y85.239 E8.49886
G1 X107.036 Y85.051 E8.54172
G1 X107.951 Y84.941 E8.58464
G1 X108.971 Y84.913 E8.63215
G1 X110.159 Y84.938 E8.68748
G1 X112.798 Y84.955 E8.81036
G1 X114.838 Y84.918 E8.90537
G1 X115.272 Y84.905 E8.92559
G1 X115.585 Y84.9 E8.94017
G1 X118.793 Y84.9 E9.08954
G1 X120.611 Y84.925 E9.17421
G1 X121.59 Y84.951 E9.21981
G1 X124.178 Y84.949 E9.34032
G1 X125.456 Y84.921 E9.39984
G1 X125.992 Y84.905 E9.42481
G1 X126.303 Y84.9 E9.43929
G1 X129.695 Y84.901 E9.59724
G1 X130.393 Y84.911 E9.62974
G1 X131.312 Y84.964 E9.67261
G1 X132.223 Y85.097 E9.71548
G1 X133.119 Y85.308 E9.75834
G1 X133.993 Y85.596 E9.80119
G1 X134.84 Y85.959 E9.8441
G1 X135.651 Y86.394 E9.88695
G1 X136.421 Y86.898 E9.9298
G1 X137.145 Y87.467 E9.97268
G1 X137.817 Y88.097 E10.01557
G1 X138.432 Y88.782 E10.05844
G1 X138.985 Y89.518 E10.10131
G1 X139.472 Y90.299 E10.14416
G1 X139.889 Y91.12 E10.18704
G1 X140.234 Y91.974 E10.22993
G1 X140.503 Y92.854 E10.27278
G1 X140.695 Y93.755 E10.31567
G1 X140.808 Y94.668 E10.35851
G1 X140.837 Y95.212 E10.38388
G1 X140.846 Y95.532 E10.39878
G1 X140.85 Y95.83 E10.41266
G1 X140.849 Y104.935 E10.83663
G1 X140.823 Y106.739 E10.92064
G1 X140.823 Y109.389 E11.04403
G1 X140.848 Y110.593 E11.10011
G1 X140.85 Y110.813 E11.11035
G1 X140.849 Y119.944 E11.53553
G1 X140.839 Y120.646 E11.56822
G1 X140.786 Y121.565 E11.61109
G1 X140.653 Y122.476 E11.65396
G1 X140.442 Y123.372 E11.69682
G1 X140.154 Y124.247 E11.73971
G1 X139.791 Y125.093 E11.78258
G1 X139.356 Y125.904 E11.82543
G1 X138.852 Y126.675 E11.86832
G1 X138.011 Y127.704 E11.9302
G1 X137.87 Y127.856 E11.93986
G1 X137.676 Y128.06 E11.95297
G1 X137.495 Y128.245 E11.96502
G1 X134.118 Y131.621 E12.18737
G1 X133.624 Y132.1 E12.21941
G1 X132.936 Y132.712 E12.26228
G1 X132.197 Y133.261 E12.30515
G1 X131.414 Y133.745 E12.34802
G1 X130.591 Y134.158 E12.39089
G1 X129.736 Y134.499 E12.43375
G1 X128.854 Y134.764 E12.47664
G1 X127.953 Y134.952 E12.5195
G1 X126.603 Y135.084 E12.58266
G1 X126.227 Y135.094 E12.60017
G1 X125.688 Y135.1 E12.62527
G1 X109.306 Y135.099 E13.38809
G1 X108.604 Y135.089 E13.42078
G1 X107.685 Y135.036 E13.46364
G1 X106.774 Y134.903 E13.50651
G1 X105.878 Y134.692 E13.54937
G1 X105.003 Y134.404 E13.59227
G1 X104.157 Y134.041 E13.63513
G1 X103.346 Y133.606 E13.67799
G1 X102.575 Y133.102 E13.72088
G1 X101.546 Y132.261 E13.78276
G1 X101.394 Y132.12 E13.79241
G1 X101.186 Y131.922 E13.80578
G1 X100.914 Y131.655 E13.82353
G1 X97.737 Y128.479 E14.03271
G1 X97.141 Y127.864 E14.07259
G1 X96.53 Y127.175 E14.11547
G1 X95.981 Y126.436 E14.15834
G1 X95.499 Y125.652 E14.20119
G1 X95.086 Y124.829 E14.24407
G1 X94.747 Y123.973 E14.28694
G1 X94.483 Y123.091 E14.32981
G1 X94.296 Y122.189 E14.3727
G1 X94.166 Y120.853 E14.43521
G1 X94.156 Y120.477 E14.45272
G1 X94.15 Y119.938 E14.47782
G1 X94.151 Y115.057 E14.7051
G1 X94.161 Y114.35 E14.73802
G1 X94.175 Y113.93 E14.75759
G1 X94.249 Y111.307 E14.87978
G1 X94.249 Y108.782 E14.99735
G1 X94.198 Y106.739 E15.09251
G1 X94.161 Y105.723 E15.13985
G1 X94.155 Y105.445 E15.1528
G1 X94.15 Y104.938 E15.17641
G1 X94.151 Y100.056 E15.40374
G1 X94.161 Y99.354 E15.43643
G1 X94.214 Y98.435 E15.47929
G1 X94.347 Y97.524 E15.52216
G1 X94.558 Y96.628 E15.56502
G1 X94.846 Y95.753 E15.60792
G1 X95.209 Y94.907 E15.65078
G1 X95.644 Y94.096 E15.69364
G1 X96.148 Y93.325 E15.73653
G1 X96.989 Y92.296 E15.79841
G1 X97.13 Y92.144 E15.80806
G0 F6000 X97.423 Y92.416
G1 F1200 X97.61 Y92.22 E15.82068
G1 X97.868 Y91.957 E15.83783
G1 X101.162 Y88.663 E16.05475
G1 X101.646 Y88.193 E16.08616
G1 X102.321 Y87.594 E16.12819
G1 X103.047 Y87.056 E16.17026
G1 X103.817 Y86.584 E16.21232
G1 X104.626 Y86.183 E16.25436
G1 X105.467 Y85.854 E16.29641
G1 X106.334 Y85.602 E16.33845
G1 X107.22 Y85.427 E16.38051
G1 X108.118 Y85.331 E16.42256
G1 X108.962 Y85.313 E16.46187
G1 X110.146 Y85.337 E16.51701
G1 X112.803 Y85.355 E16.64074
G1 X114.776 Y85.319 E16.73262
G1 X115.283 Y85.304 E16.75624
G1 X115.585 Y85.3 E16.7703
G1 X118.793 Y85.3 E16.91968
G1 X120.605 Y85.325 E17.00406
G1 X121.579 Y85.351 E17.04943
G1 X124.187 Y85.349 E17.17087
G1 X125.424 Y85.321 E17.22849
G1 X126.004 Y85.304 E17.25551
G1 X126.303 Y85.3 E17.26943
G1 X129.689 Y85.301 E17.4271
G1 X130.387 Y85.311 E17.4596
G1 X131.289 Y85.364 E17.50168
G1 X132.182 Y85.496 E17.54371
G1 X133.06 Y85.707 E17.58576
G1 X133.916 Y85.995 E17.62781
G1 X134.743 Y86.357 E17.66985
G1 X135.535 Y86.792 E17.71192
G1 X136.286 Y87.294 E17.75398
G1 X136.989 Y87.861 E17.79604
G1 X137.639 Y88.488 E17.83809
G1 X138.231 Y89.17 E17.88015
G1 X138.761 Y89.901 E17.92219
G1 X139.223 Y90.677 E17.96424
G1 X139.616 Y91.49 E18.00629
G1 X139.934 Y92.335 E18.04833
G1 X140.177 Y93.205 E18.09039
G1 X140.342 Y94.093 E18.13245
G1 X140.437 Y95.223 E18.18525
G1 X140.446 Y95.543 E18.20016
G1 X140.45 Y95.83 E18.21352
G1 X140.449 Y104.929 E18.63721
G1 X140.423 Y106.729 E18.72103
G1 X140.423 Y109.397 E18.84527
G1 X140.448 Y110.601 E18.90134
G1 X140.45 Y110.813 E18.91122
G1 X140.449 Y119.938 E19.33611
G1 X140.439 Y120.64 E19.36881
G1 X140.386 Y121.542 E19.41088
G1 X140.254 Y122.435 E19.45291
G1 X140.043 Y123.313 E19.49496
G1 X139.755 Y124.169 E19.53701
G1 X139.393 Y124.997 E19.57909
G1 X138.959 Y125.789 E19.62115
G1 X138.456 Y126.539 E19.6632
G1 X137.718 Y127.432 E19.71714
G1 X137.577 Y127.584 E19.72679
G1 X137.39 Y127.78 E19.73941
G1 X137.209 Y127.965 E19.75146
G1 X133.839 Y131.334 E19.97335
G1 X133.345 Y131.813 E20.00539
G1 X132.67 Y132.412 E20.04741
G1 X131.944 Y132.949 E20.08946
G1 X131.173 Y133.42 E20.13153
G1 X130.364 Y133.821 E20.17357
G1 X129.523 Y134.149 E20.21561
G1 X128.655 Y134.401 E20.25769
G1 X127.769 Y134.575 E20.29974
G1 X126.589 Y134.684 E20.35492
G1 X126.222 Y134.694 E20.37201
G1 X125.688 Y134.7 E20.39688
G1 X109.312 Y134.699 E21.15941
G1 X108.61 Y134.689 E21.1921
G1 X107.708 Y134.636 E21.23418
G1 X106.815 Y134.504 E21.27621
G1 X105.937 Y134.293 E21.31826
G1 X105.081 Y134.005 E21.36031
G1 X104.253 Y133.643 E21.40239
G1 X103.461 Y133.209 E21.44445
G1 X102.711 Y132.706 E21.4865
G1 X101.818 Y131.968 E21.54044
G1 X101.666 Y131.827 E21.55009
G1 X101.466 Y131.636 E21.56297
G1 X101.197 Y131.372 E21.58052
G1 X97.899 Y128.073 E21.79773
G1 X97.428 Y127.586 E21.82928
G1 X96.83 Y126.91 E21.87131
G1 X96.293 Y126.183 E21.91339
G1 X95.823 Y125.412 E21.95544
G1 X95.423 Y124.602 E21.9975
G1 X95.097 Y123.76 E22.03955
G1 X94.846 Y122.893 E22.08158
G1 X94.673 Y122.006 E22.12366
G1 X94.566 Y120.839 E22.17822
G1 X94.556 Y120.472 E22.19532
G1 X94.55 Y119.938 E22.22019
G1 X94.551 Y115.063 E22.44719
G1 X94.561 Y114.356 E22.48011
G1 X94.649 Y111.318 E22.62163
G1 X94.649 Y108.772 E22.74018
G1 X94.598 Y106.729 E22.83535
G1 X94.561 Y105.709 E22.88287
G1 X94.555 Y105.441 E22.89535
G1 X94.55 Y104.938 E22.91878
G1 X94.551 Y100.062 E23.14582
G1 X94.561 Y99.36 E23.17852
G1 X94.614 Y98.458 E23.22059
G1 X94.746 Y97.565 E23.26262
G1 X94.957 Y96.687 E23.30467
G1 X95.245 Y95.831 E23.34672
G1 X95.607 Y95.003 E23.3888
G1 X96.041 Y94.211 E23.43086
G1 X96.544 Y93.461 E23.47291
G1 X97.282 Y92.568 E23.52685
G1 X97.423 Y92.416 E23.5365
G1 F2700 E18.5365
;MESH:ground-station-radio-case-laptop-clips.STL(1)
G0 F6000 X104.404 Y98.906
G0 X105.17 Y99.672
G0 X107.955 Y97.418
G0 X108.322 Y105.928
G0 X115.678 Y105.928
G0 X116.032 Y96.282
G0 X116.218 Y100.282
G0 X129.282 Y100.282
G0 X129.282 Y96.282
G0 X129.476 Y105.181
G0 X126.002 Y108.9
;TYPE:WALL-INNER
G1 F2700 E23.5365
G1 F1200 X108.998 Y108.9 E24.32828
G1 X105.35 Y105.252 E24.56851
G1 X105.35 Y99.748 E24.8248
G1 X107.81 Y97.288 E24.98679
G1 X108.15 Y96.948 E25.00918
G1 X108.15 Y97.428 E25.02121
G1 X108.15 Y97.429 E25.02125
G1 X108.15 Y106.1 E25.42501
G1 X115.85 Y106.1 E25.78356
G1 X115.85 Y96.1 E26.2492
G1 X116.4 Y96.1 E26.27481
G1 X118.9 Y96.1 E26.39122
G1 X118.9 Y96.4 E26.40519
G1 X116.4 Y96.4 E26.49272
G1 X116.4 Y100.1 E26.665
G1 X129.1 Y100.1 E27.25637
G1 X129.1 Y96.4 E27.42866
G1 X126.6 Y96.4 E27.54507
G1 X126.6 Y96.1 E27.55904
G1 X129.1 Y96.1 E27.64656
G1 X129.65 Y96.1 E27.67217
G1 X129.65 Y105.252 E28.09833
G1 X126.002 Y108.9 E28.33855
G0 F6000 X126.168 Y109.3
;TYPE:WALL-OUTER
G1 F1200 X108.832 Y109.3 E29.14579
G1 X104.95 Y105.418 E29.40143
G1 X104.95 Y99.582 E29.67318
G1 X108.55 Y95.982 E29.91024
G1 X108.55 Y105.7 E30.36275
G1 X115.45 Y105.7 E30.68405
G1 X115.45 Y95.7 E31.14969
G1 X119.3 Y95.7 E31.32896
G1 X119.3 Y96.8 E31.38018
G1 X116.8 Y96.8 E31.49659
G1 X116.8 Y99.7 E31.63163
G1 X128.7 Y99.7 E32.18574
G1 X128.7 Y96.8 E32.32078
G1 X126.2 Y96.8 E32.43719
G1 X126.2 Y95.7 E32.48841
G1 X130.05 Y95.7 E32.66768
G1 X130.05 Y105.418 E33.12019
G1 X126.168 Y109.3 E33.37583
G0 F6000 X126 Y108.894
G0 X125.842 Y108.51
;TYPE:SKIN
G1 F1200 X109.158 Y108.51 E34.1527
G1 X105.74 Y105.092 E34.37779
G1 X105.74 Y99.908 E34.61917
G1 X107.76 Y97.888 E34.7522
G1 X107.76 Y106.49 E35.15274
G1 X116.24 Y106.49 E35.5476
G1 X116.24 Y100.49 E35.82699
G1 X129.26 Y100.49 E36.43326
G1 X129.26 Y105.092 E36.64754
G1 X125.842 Y108.51 E36.87263
G0 F6000 X126.039 Y108.707
G0 X129.476 Y105.181
G0 X129.54 Y100.815
G0 X129.099 Y100.815
G1 F1200 X128.934 Y100.65 E36.88349
G0 F6000 X128.368 Y100.65
G1 F1200 X129.099 Y101.38 E36.9316
G0 F6000 X129.099 Y101.946
G1 F1200 X127.803 Y100.65 E37.01694
G0 F6000 X127.237 Y100.65
G1 F1200 X129.099 Y102.512 E37.13955
G0 F6000 X129.099 Y103.077
G1 F1200 X126.671 Y100.65 E37.29941
G0 F6000 X126.106 Y100.65
G1 F1200 X129.099 Y103.643 E37.4965
G0 F6000 X129.099 Y104.209
G1 F1200 X125.54 Y100.65 E37.73087
G0 F6000 X124.974 Y100.65
G1 F1200 X129.099 Y104.774 E38.00248
G0 F6000 X128.942 Y105.183
G1 F1200 X124.409 Y100.65 E38.30098
G0 F6000 X123.843 Y100.65
G1 F1200 X128.659 Y105.466 E38.61812
G0 F6000 X128.376 Y105.749
G1 F1200 X123.277 Y100.65 E38.9539
G0 F6000 X122.712 Y100.65
G1 F1200 X128.093 Y106.032 E39.30828
G0 F6000 X127.81 Y106.314
G1 F1200 X122.146 Y100.65 E39.68127
G0 F6000 X121.58 Y100.65
G1 F1200 X127.528 Y106.597 E40.07292
G0 F6000 X127.245 Y106.88
G1 F1200 X121.014 Y100.65 E40.48321
G0 F6000 X120.449 Y100.65
G1 F1200 X126.962 Y107.163 E40.9121
G0 F6000 X126.679 Y107.446
G1 F1200 X119.883 Y100.65 E41.35963
G0 F6000 X119.317 Y100.65
G1 F1200 X126.396 Y107.729 E41.82579
G0 F6000 X126.113 Y108.011
G1 F1200 X118.752 Y100.65 E42.31053
G0 F6000 X118.186 Y100.65
G1 F1200 X125.831 Y108.294 E42.81393
G0 F6000 X125.32 Y108.349
G1 F1200 X117.62 Y100.65 E43.32096
G0 F6000 X117.055 Y100.65
G1 F1200 X124.754 Y108.349 E43.82795
G0 F6000 X124.189 Y108.349
G1 F1200 X116.489 Y100.65 E44.33497
G0 F6000 X116.398 Y101.125
G1 F1200 X123.623 Y108.349 E44.81072
G0 F6000 X123.057 Y108.349
G1 F1200 X116.398 Y101.691 E45.24919
G0 F6000 X116.398 Y102.256
G1 F1200 X122.492 Y108.349 E45.65046
