;FLAVOR:Marlin
;TIME:12279
;Filament used: 10.6535m
;Layer height: 0.28
;MINX:68.46
;MINY:61.2
;MINZ:0.28
;MAXX:166.54
;MAXY:173.8
;MAXZ:27.72
;Generated with Cura_SteamEngine 4.8.0
M140 S50
M105
M190 S50
M104 S200
M105
M109 S200
M82 ;absolute extrusion mode
; Script based on an original created by tjjfvi (https://github.com/tjjfvi)
; An up-to-date version of the tjjfvi's original script can be found
; here:  https://csi.t6.fyi/
; Note - This script will only work in Cura V4.2 and above!
; --- Global Settings
; layer_height = 0.28
; smooth_spiralized_contours = True
; magic_mesh_surface_mode = normal
; machine_extruder_count = 1
; --- Single Extruder Settings
; speed_z_hop = 5
; retraction_amount = 5
; retraction_hop = 0.2
; retraction_hop_enabled = False
; retraction_enable = True
; retraction_speed = 45
; retraction_retract_speed = 45
; retraction_prime_speed = 45
; speed_travel = 150.0

; Ender 3 Custom Start G-code
G92 E0 ; Reset Extruder
G28 ; Home all axes
G1 Z2.0 F3000 ; Move Z Axis up little to prevent scratching of Heat Bed
G1 X0.1 Y20 Z0.3 F5000.0 ; Move to start position
G1 X0.1 Y200.0 Z0.3 F1500.0 E15 ; Draw the first line
G1 X0.4 Y200.0 Z0.3 F5000.0 ; Move to side a little
G1 X0.4 Y20 Z0.3 F1500.0 E30 ; Draw the second line
G92 E0 ; Reset Extruder
G1 Z2.0 F3000 ; Move Z Axis up little to prevent scratching of Heat Bed
G1 X5 Y20 Z0.3 F5000.0 ; Move over to prevent blob squish
G92 E0
G92 E0
G1 F2700 E-5
;LAYER_COUNT:99
;LAYER:0
M107
G0 F6000 X72.359 Y78.805 Z0.28
;TYPE:SKIRT
G1 F2700 E0
G1 F1200 X73.1 Y78.23 E0.04367
G1 X73.887 Y77.72 E0.08734
G1 X74.561 Y77.354 E0.12305
G1 X75.417 Y76.971 E0.16672
G1 X76.112 Y76.721 E0.20111
G1 X76.489 Y76.6 E0.21955
G1 X78.911 Y75.78 E0.33862
G1 X81.268 Y74.906 E0.45567
G1 X83.599 Y73.966 E0.57271
G1 X85.898 Y72.962 E0.68952
G1 X88.202 Y71.879 E0.80806
G1 X90.436 Y70.749 E0.92464
G1 X92.642 Y69.555 E1.04144
G1 X94.824 Y68.291 E1.15886
G1 X96.958 Y66.975 E1.2756
G1 X99.037 Y65.608 E1.39146
G1 X101.648 Y63.776 E1.53998
G1 X102.288 Y63.311 E1.57682
G1 X103.07 Y62.793 E1.6205
G1 X103.893 Y62.343 E1.66418
G1 X104.751 Y61.965 E1.70783
G1 X105.638 Y61.661 E1.75149
G1 X106.548 Y61.434 E1.79517
G1 X107.474 Y61.286 E1.83883
G1 X108.41 Y61.216 E1.88254
G1 X108.98 Y61.213 E1.90908
G1 X110.169 Y61.238 E1.96446
G1 X112.793 Y61.255 E2.08664
G1 X114.819 Y61.218 E2.181
G1 X115.26 Y61.205 E2.20154
G1 X115.585 Y61.2 E2.21668
G1 X118.793 Y61.2 E2.36605
G1 X120.617 Y61.225 E2.451
G1 X121.6 Y61.251 E2.49678
G1 X124.169 Y61.249 E2.61641
G1 X125.439 Y61.221 E2.67556
G1 X125.981 Y61.205 E2.70081
G1 X126.303 Y61.2 E2.7158
G1 X129.699 Y61.201 E2.87393
G1 X130.402 Y61.211 E2.90667
G1 X131.339 Y61.264 E2.95037
G1 X132.267 Y61.397 E2.99403
G1 X133.181 Y61.609 E3.03772
G1 X134.073 Y61.897 E3.08136
G1 X134.938 Y62.261 E3.12506
G1 X135.768 Y62.697 E3.16872
G1 X136.559 Y63.202 E3.21242
G1 X137.033 Y63.554 E3.23991
G1 X138.037 Y64.342 E3.29934
G1 X138.485 Y64.702 E3.3261
G1 X140.51 Y66.241 E3.44453
G1 X142.566 Y67.713 E3.56228
G1 X144.645 Y69.115 E3.67904
G1 X146.761 Y70.455 E3.79566
G1 X148.942 Y71.753 E3.91384
G1 X151.103 Y72.956 E4.02901
G1 X153.368 Y74.136 E4.14793
G1 X155.641 Y75.238 E4.26556
G1 X157.911 Y76.261 E4.3815
G1 X159.426 Y76.896 E4.45799
G1 X159.914 Y77.108 E4.48276
G1 X160.757 Y77.518 E4.52641
G1 X161.563 Y77.998 E4.57009
G1 X162.325 Y78.546 E4.6138
G1 X163.037 Y79.156 E4.65745
G1 X163.695 Y79.824 E4.70112
G1 X164.293 Y80.547 E4.74481
G1 X164.828 Y81.317 E4.78846
G1 X165.295 Y82.13 E4.83212
G1 X165.691 Y82.98 E4.87579
G1 X166.013 Y83.861 E4.91946
G1 X166.259 Y84.766 E4.96313
G1 X166.427 Y85.689 E5.00682
G1 X166.527 Y86.891 E5.06298
G1 X166.536 Y87.214 E5.07803
G1 X166.54 Y87.52 E5.09228
G1 X166.539 Y142.692 E7.66132
G1 X166.532 Y143.214 E7.68563
G1 X166.532 Y145.853 E7.80851
G1 X166.537 Y146.105 E7.82025
G1 X166.54 Y146.495 E7.83841
G1 X166.539 Y146.731 E7.84939
G1 X166.529 Y147.459 E7.8833
G1 X166.476 Y148.395 E7.92695
G1 X166.344 Y149.324 E7.97064
G1 X166.133 Y150.238 E8.01432
G1 X165.845 Y151.13 E8.05797
G1 X165.481 Y151.995 E8.10167
G1 X165.046 Y152.826 E8.14534
G1 X164.541 Y153.616 E8.189
G1 X163.971 Y154.361 E8.23268
G1 X163.34 Y155.054 E8.27632
G1 X162.652 Y155.691 E8.31998
G1 X161.912 Y156.268 E8.36368
G1 X161.125 Y156.779 E8.40737
G1 X160.298 Y157.221 E8.45103
G1 X159.219 Y157.671 E8.50547
G1 X158.497 Y157.928 E8.54116
G1 X157.267 Y158.345 E8.60163
G1 X154.87 Y159.233 E8.72066
G1 X152.536 Y160.174 E8.83784
G1 X150.25 Y161.172 E8.95399
G1 X147.946 Y162.255 E9.07253
G1 X145.712 Y163.385 E9.18911
G1 X143.512 Y164.576 E9.3056
G1 X141.332 Y165.838 E9.42289
G1 X139.155 Y167.181 E9.542
G1 X137.093 Y168.534 E9.65684
G1 X135.025 Y169.978 E9.77428
G1 X133.434 Y171.164 E9.86669
G1 X132.726 Y171.68 E9.90748
G1 X131.945 Y172.199 E9.95114
G1 X131.123 Y172.65 E9.9948
G1 X130.265 Y173.03 E10.0385
G1 X129.378 Y173.335 E10.08217
G1 X128.469 Y173.563 E10.12581
G1 X127.543 Y173.713 E10.16949
G1 X126.613 Y173.784 E10.21292
G1 X126.231 Y173.794 E10.23072
G1 X125.688 Y173.8 E10.256
G1 X109.3 Y173.799 E11.0191
G1 X108.598 Y173.789 E11.05179
G1 X107.662 Y173.736 E11.09544
G1 X106.734 Y173.603 E11.1391
G1 X105.82 Y173.391 E11.18278
G1 X104.927 Y173.103 E11.22648
G1 X104.063 Y172.739 E11.27013
G1 X103.232 Y172.303 E11.31383
G1 X102.232 Y171.647 E11.36952
G1 X101.473 Y171.088 E11.41341
G1 X101.105 Y170.808 E11.43494
G1 X99.053 Y169.328 E11.55275
G1 X96.958 Y167.905 E11.67068
G1 X94.841 Y166.552 E11.78767
G1 X92.688 Y165.262 E11.90454
G1 X90.496 Y164.03 E12.02163
G1 X88.278 Y162.866 E12.13826
G1 X85.987 Y161.744 E12.25705
G1 X83.713 Y160.71 E12.37337
G1 X81.4 Y159.735 E12.49025
G1 X79.014 Y158.807 E12.60946
G1 X76.326 Y157.856 E12.74222
G1 X75.924 Y157.719 E12.762
G1 X75.05 Y157.379 E12.80567
G1 X74.208 Y156.966 E12.84934
G1 X73.404 Y156.483 E12.89301
G1 X72.644 Y155.933 E12.9367
G1 X71.934 Y155.32 E12.98037
G1 X71.279 Y154.649 E13.02404
G1 X70.683 Y153.925 E13.0677
G1 X70.151 Y153.152 E13.1114
G1 X69.687 Y152.337 E13.15507
G1 X69.294 Y151.486 E13.19871
G1 X68.975 Y150.604 E13.24239
G1 X68.732 Y149.698 E13.28607
G1 X68.567 Y148.775 E13.32973
G1 X68.473 Y147.62 E13.38368
G1 X68.464 Y147.305 E13.39836
G1 X68.461 Y146.833 E13.42034
G1 X68.468 Y146.346 E13.44302
G1 X68.468 Y143.707 E13.5659
G1 X68.463 Y143.455 E13.57764
G1 X68.46 Y143.036 E13.59715
G1 X68.461 Y87.699 E16.17387
G1 X68.471 Y87.033 E16.20488
G1 X68.525 Y86.097 E16.24854
G1 X68.659 Y85.168 E16.29225
G1 X68.871 Y84.255 E16.33589
G1 X69.16 Y83.363 E16.37955
G1 X69.525 Y82.498 E16.42327
G1 X69.961 Y81.668 E16.46692
G1 X70.467 Y80.878 E16.51061
G1 X71.038 Y80.134 E16.55428
G1 X71.67 Y79.442 E16.59792
G1 X72.359 Y78.805 E16.64161
G0 F6000 X72.748 Y79.002
G1 F1200 X73.484 Y78.45 E16.68445
G1 X74.266 Y77.964 E16.72732
G1 X74.74 Y77.712 E16.75232
G1 X75.58 Y77.336 E16.79517
G1 X76.235 Y77.102 E16.82756
G1 X76.594 Y76.987 E16.84511
G1 X79.041 Y76.158 E16.96542
G1 X81.42 Y75.276 E17.08356
G1 X83.73 Y74.345 E17.19953
G1 X86.079 Y73.319 E17.31889
G1 X88.374 Y72.24 E17.43698
G1 X90.6 Y71.114 E17.55314
G1 X92.868 Y69.886 E17.67323
G1 X95.013 Y68.644 E17.78865
G1 X97.191 Y67.301 E17.90779
G1 X99.272 Y65.933 E18.02375
G1 X101.863 Y64.115 E18.17114
G1 X102.523 Y63.635 E18.20914
G1 X103.291 Y63.127 E18.25202
G1 X104.1 Y62.687 E18.2949
G1 X104.944 Y62.319 E18.33777
G1 X105.816 Y62.026 E18.38061
G1 X106.711 Y61.809 E18.42349
G1 X107.622 Y61.672 E18.46639
G1 X108.972 Y61.613 E18.52931
G1 X110.159 Y61.638 E18.58459
G1 X112.798 Y61.655 E18.70748
G1 X114.838 Y61.618 E18.80248
G1 X115.272 Y61.605 E18.8227
G1 X115.585 Y61.6 E18.83728
G1 X118.793 Y61.6 E18.98666
G1 X120.611 Y61.625 E19.07132
G1 X121.59 Y61.651 E19.11692
G1 X124.178 Y61.649 E19.23743
G1 X125.456 Y61.621 E19.29695
G1 X125.992 Y61.605 E19.32192
G1 X126.303 Y61.6 E19.3364
G1 X129.694 Y61.601 E19.4943
G1 X130.397 Y61.611 E19.52704
G1 X131.316 Y61.664 E19.5699
G1 X132.227 Y61.797 E19.61277
G1 X133.123 Y62.008 E19.65564
G1 X133.997 Y62.296 E19.69849
G1 X134.844 Y62.659 E19.7414
G1 X135.655 Y63.094 E19.78425
G1 X136.787 Y63.869 E19.84813
G1 X137.786 Y64.653 E19.90726
G1 X138.26 Y65.034 E19.93558
G1 X140.258 Y66.552 E20.05242
G1 X142.355 Y68.054 E20.17253
G1 X144.413 Y69.442 E20.28812
G1 X146.548 Y70.794 E20.40579
G1 X148.723 Y72.088 E20.52363
G1 X150.931 Y73.318 E20.64132
G1 X153.189 Y74.493 E20.75985
G1 X155.452 Y75.591 E20.87697
G1 X157.785 Y76.642 E20.99612
G1 X159.267 Y77.263 E21.07094
G1 X159.755 Y77.475 E21.09572
G1 X160.582 Y77.878 E21.13855
G1 X161.372 Y78.351 E21.18143
G1 X162.117 Y78.892 E21.2243
G1 X162.813 Y79.494 E21.26715
G1 X163.454 Y80.155 E21.31003
G1 X164.035 Y80.869 E21.35289
G1 X164.552 Y81.631 E21.39577
G1 X165.001 Y82.435 E21.43865
G1 X165.379 Y83.275 E21.48154
G1 X165.682 Y84.144 E21.52439
G1 X165.908 Y85.036 E21.56724
G1 X166.057 Y85.945 E21.61013
G1 X166.127 Y86.902 E21.65481
G1 X166.136 Y87.225 E21.66986
G1 X166.14 Y87.52 E21.6836
G1 X166.139 Y142.686 E24.25236
G1 X166.132 Y143.208 E24.27667
G1 X166.132 Y145.862 E24.40025
G1 X166.137 Y146.108 E24.4117
G1 X166.14 Y146.498 E24.42986
G1 X166.139 Y146.726 E24.44048
G1 X166.129 Y147.454 E24.47438
G1 X166.076 Y148.373 E24.51725
G1 X165.944 Y149.284 E24.56011
G1 X165.733 Y150.18 E24.60297
G1 X165.446 Y151.055 E24.64585
G1 X165.083 Y151.901 E24.68872
G1 X164.649 Y152.713 E24.73159
G1 X164.145 Y153.483 E24.77444
G1 X163.577 Y154.208 E24.81733
G1 X162.948 Y154.88 E24.86019
G1 X162.263 Y155.495 E24.90305
G1 X161.527 Y156.048 E24.94592
G1 X160.746 Y156.536 E24.9888
G1 X159.926 Y156.954 E25.03166
G1 X159.085 Y157.294 E25.0739
G1 X158.206 Y157.606 E25.11733
G1 X157.105 Y157.979 E25.17146
G1 X154.731 Y158.858 E25.28934
G1 X152.393 Y159.8 E25.40671
G1 X150.069 Y160.815 E25.5248
G1 X147.774 Y161.894 E25.64288
G1 X145.548 Y163.02 E25.75904
G1 X143.285 Y164.245 E25.87886
G1 X141.117 Y165.5 E25.99551
G1 X138.973 Y166.822 E26.1128
G1 X136.85 Y168.215 E26.23103
G1 X134.786 Y169.657 E26.34827
G1 X133.198 Y170.84 E26.44048
G1 X132.49 Y171.356 E26.48127
G1 X131.723 Y171.866 E26.52416
G1 X130.915 Y172.307 E26.56703
G1 X130.072 Y172.676 E26.60988
G1 X129.2 Y172.97 E26.65272
G1 X128.305 Y173.188 E26.69562
G1 X127.395 Y173.328 E26.73849
G1 X126.6 Y173.384 E26.7756
G1 X126.227 Y173.394 E26.79298
G1 X125.688 Y173.4 E26.81807
G1 X109.306 Y173.399 E27.58089
G1 X108.604 Y173.389 E27.61358
G1 X107.685 Y173.336 E27.65644
G1 X106.774 Y173.203 E27.69931
G1 X105.878 Y172.992 E27.74218
G1 X105.003 Y172.704 E27.78507
G1 X104.157 Y172.341 E27.82794
G1 X103.346 Y171.906 E27.87079
G1 X102.469 Y171.325 E27.91978
G1 X101.71 Y170.766 E27.96367
G1 X101.315 Y170.466 E27.98676
G1 X99.289 Y169.004 E28.1031
G1 X97.176 Y167.57 E28.22201
G1 X95.057 Y166.215 E28.33913
G1 X92.884 Y164.913 E28.45708
G1 X90.699 Y163.685 E28.57379
G1 X88.433 Y162.495 E28.69297
G1 X86.178 Y161.391 E28.80988
G1 X83.869 Y160.341 E28.928
G1 X81.551 Y159.365 E29.04511
G1 X79.156 Y158.433 E29.16478
G1 X76.437 Y157.471 E29.29908
G1 X76.053 Y157.34 E29.31797
G1 X75.195 Y157.006 E29.36084
G1 X74.369 Y156.599 E29.40372
G1 X73.582 Y156.121 E29.44659
G1 X72.839 Y155.577 E29.48947
G1 X72.147 Y154.97 E29.53234
G1 X71.509 Y154.306 E29.57521
G1 X70.932 Y153.589 E29.61807
G1 X70.419 Y152.825 E29.66092
G1 X69.974 Y152.019 E29.70379
G1 X69.601 Y151.177 E29.74667
G1 X69.302 Y150.306 E29.78955
G1 X69.08 Y149.413 E29.8324
G1 X68.937 Y148.503 E29.87529
G1 X68.873 Y147.609 E29.91703
G1 X68.864 Y147.294 E29.9317
G1 X68.861 Y146.839 E29.95289
G1 X68.868 Y146.352 E29.97557
G1 X68.868 Y143.698 E30.09915
G1 X68.863 Y143.452 E30.11061
G1 X68.86 Y143.033 E30.13012
G1 X68.861 Y87.705 E32.70642
G1 X68.871 Y87.039 E32.73744
G1 X68.925 Y86.12 E32.7803
G1 X69.058 Y85.209 E32.82317
G1 X69.27 Y84.313 E32.86605
G1 X69.559 Y83.439 E32.90891
G1 X69.923 Y82.593 E32.9518
G1 X70.358 Y81.782 E32.99465
G1 X70.863 Y81.012 E33.03753
G1 X71.432 Y80.288 E33.0804
G1 X72.062 Y79.617 E33.12326
G1 X72.748 Y79.002 E33.16616
G0 F6000 X73.135 Y79.204
G1 F1200 X73.867 Y78.675 E33.20822
G1 X74.918 Y78.07 E33.26468
G1 X75.743 Y77.702 E33.30675
G1 X76.357 Y77.483 E33.3371
G1 X76.718 Y77.367 E33.35476
G1 X79.172 Y76.536 E33.4754
G1 X81.56 Y75.651 E33.59399
G1 X83.903 Y74.706 E33.71163
G1 X86.244 Y73.684 E33.83057
G1 X88.546 Y72.602 E33.94901
G1 X90.792 Y71.466 E34.06621
G1 X93.038 Y70.25 E34.18514
G1 X95.244 Y68.972 E34.30385
G1 X97.39 Y67.648 E34.42126
G1 X99.493 Y66.266 E34.53844
G1 X102.078 Y64.452 E34.68549
G1 X102.758 Y63.958 E34.72463
G1 X103.512 Y63.461 E34.76668
G1 X104.306 Y63.031 E34.80872
G1 X105.136 Y62.674 E34.85079
G1 X105.994 Y62.391 E34.89286
G1 X106.873 Y62.186 E34.93489
G1 X107.767 Y62.059 E34.97694
G1 X108.964 Y62.013 E35.03272
G1 X110.148 Y62.037 E35.08786
G1 X112.803 Y62.055 E35.21149
G1 X114.776 Y62.019 E35.30338
G1 X115.283 Y62.004 E35.327
G1 X115.585 Y62 E35.34106
G1 X118.793 Y62 E35.49044
G1 X120.605 Y62.025 E35.57482
G1 X121.579 Y62.051 E35.62019
G1 X124.187 Y62.049 E35.74163
G1 X125.424 Y62.021 E35.79924
G1 X126.004 Y62.004 E35.82626
G1 X126.303 Y62 E35.84019
G1 X129.688 Y62.001 E35.99781
G1 X130.391 Y62.011 E36.03054
G1 X131.293 Y62.064 E36.07262
G1 X132.186 Y62.196 E36.11465
G1 X133.064 Y62.407 E36.1567
G1 X133.92 Y62.695 E36.19875
G1 X134.747 Y63.057 E36.24079
G1 X135.539 Y63.491 E36.28284
G1 X136.54 Y64.183 E36.33951
G1 X137.535 Y64.965 E36.39843
G1 X137.99 Y65.331 E36.42562
G1 X140.052 Y66.897 E36.54619
G1 X142.08 Y68.35 E36.66236
G1 X144.222 Y69.794 E36.78265
G1 X146.351 Y71.143 E36.90001
G1 X148.503 Y72.423 E37.0166
G1 X150.758 Y73.679 E37.13679
G1 X153.008 Y74.85 E37.2549
G1 X155.291 Y75.958 E37.37306
G1 X157.601 Y76.999 E37.49104
G1 X159.107 Y77.63 E37.56708
G1 X159.595 Y77.842 E37.59185
G1 X160.407 Y78.238 E37.63392
G1 X161.18 Y78.704 E37.67595
G1 X161.909 Y79.237 E37.718
G1 X162.588 Y79.833 E37.76007
G1 X163.212 Y80.486 E37.80212
G1 X163.776 Y81.191 E37.84416
G1 X164.274 Y81.944 E37.8862
G1 X164.705 Y82.738 E37.92827
G1 X165.063 Y83.567 E37.97032
G1 X165.347 Y84.424 E38.01236
G1 X165.554 Y85.304 E38.05445
G1 X165.682 Y86.198 E38.0965
G1 X165.727 Y86.913 E38.12986
G1 X165.736 Y87.236 E38.14491
G1 X165.74 Y87.52 E38.15814
G1 X165.739 Y142.681 E40.72666
G1 X165.732 Y143.203 E40.75097
G1 X165.732 Y145.871 E40.8752
G1 X165.737 Y146.112 E40.88643
G1 X165.74 Y146.502 E40.90459
G1 X165.739 Y146.72 E40.91474
G1 X165.729 Y147.448 E40.94864
G1 X165.677 Y148.35 E40.99071
G1 X165.545 Y149.243 E41.03275
G1 X165.334 Y150.121 E41.07479
G1 X165.047 Y150.978 E41.11688
G1 X164.685 Y151.805 E41.15891
G1 X164.252 Y152.597 E41.20094
G1 X163.749 Y153.348 E41.24303
G1 X163.183 Y154.051 E41.28506
G1 X162.557 Y154.702 E41.32711
G1 X161.875 Y155.294 E41.36917
G1 X161.144 Y155.824 E41.41121
G1 X160.368 Y156.287 E41.45329
G1 X159.555 Y156.68 E41.49533
G1 X158.951 Y156.917 E41.52555
G1 X158.078 Y157.227 E41.56868
G1 X156.975 Y157.6 E41.6229
G1 X154.578 Y158.488 E41.74193
G1 X152.232 Y159.434 E41.85971
G1 X149.904 Y160.45 E41.97799
G1 X147.602 Y161.532 E42.09643
G1 X145.356 Y162.668 E42.21363
G1 X143.115 Y163.881 E42.33229
G1 X140.912 Y165.157 E42.45083
G1 X138.723 Y166.507 E42.57059
G1 X136.647 Y167.869 E42.6862
G1 X134.569 Y169.321 E42.80424
G1 X132.963 Y170.517 E42.89748
G1 X132.255 Y171.033 E42.93828
G1 X131.502 Y171.532 E42.98034
G1 X130.708 Y171.963 E43.02241
G1 X129.879 Y172.321 E43.06446
G1 X129.022 Y172.605 E43.1065
G1 X128.143 Y172.812 E43.14854
G1 X127.249 Y172.941 E43.1906
G1 X126.587 Y172.984 E43.22149
G1 X126.222 Y172.994 E43.2385
G1 X125.688 Y173 E43.26336
G1 X109.312 Y172.999 E44.0259
G1 X108.61 Y172.989 E44.05859
G1 X107.708 Y172.936 E44.10066
G1 X106.815 Y172.804 E44.1427
G1 X105.937 Y172.593 E44.18474
G1 X105.081 Y172.305 E44.2268
G1 X104.253 Y171.943 E44.26888
G1 X103.461 Y171.509 E44.31093
G1 X102.706 Y171.003 E44.35325
G1 X101.947 Y170.444 E44.39715
G1 X101.586 Y170.169 E44.41828
G1 X99.502 Y168.665 E44.53795
G1 X97.411 Y167.246 E44.65562
G1 X95.271 Y165.878 E44.77388
G1 X93.064 Y164.554 E44.89373
G1 X90.875 Y163.325 E45.01062
G1 X88.645 Y162.153 E45.12793
G1 X86.341 Y161.026 E45.24736
G1 X84.041 Y159.98 E45.36501
G1 X81.685 Y158.987 E45.48406
G1 X79.308 Y158.062 E45.60283
G1 X76.598 Y157.104 E45.73667
